X: 1
T: Jerry Holland's Trip To Valby
M: 4/4
L: 1/8
R: reel
K: Fmaj
|:F2Ac dcAG|F2EF DFCD|F2Ac dcAc|1 fgag fdcA:|2 fgag ~f3g||
|:af~f2 gfde|fcdB AF~F2|1 af~f2 gfdc|dfeg ~f3g:|2 F2Ac dcAc|fgag fdcA||
